X:384
T: Miss Forbes' Farewell
N: O'Farrell's Pocket Companion v.4 (Sky ed. p.165)
N: "Scotch"
M: 2/4
L: 1/8
Q: 160
R: march
K: G
G/A/| B>d c/B/A/G/| Bde>g| d>e d/B/A/G/| BAA G/A/|
B>d c/B/A/G/| Bdeg|  d>e d/B/A/G/| BGG :|
d| g/f/g/a/ g/f/e/d/| e/f/g/e/ d2| B/d/e/d/ c/B/A/G/| BAAd|
g/f/g/a/ g/f/e/d/| e/d/e/f/ ge|  d>e d/B/A/G/|BGG :|
